src/blocks/_pro/archive-list/icon.svg

<svg width="24" height="24" viewBox="0 0 24 24" fill="none" xmlns="http://www.w3.org/2000/svg">
<g clip-path="url(#clip0_2_2)">
<path fill-rule="evenodd" clip-rule="evenodd" d="M8 3H6V5C4.89543 5 4 5.89543 4 7V11.8848C4.01279 11.8739 4.02576 11.8632 4.03891 11.8526C4.30139 11.6427 4.62302 11.5201 4.95869 11.5021L4.99871 11.5H5.5V9.5H18.5V19C18.5 19.2761 18.2761 19.5 18 19.5H9.88489L10.351 21H18C19.1046 21 20 20.1046 20 19V7C20 5.89543 19.1046 5 18 5V3H16V5H8V3ZM8.62914 13H9V11H7V11.5H7.02879C7.67333 11.5 8.13448 11.8698 8.36896 12.2293C8.51115 12.4474 8.60795 12.7132 8.62914 13ZM6 6.5H18C18.2761 6.5 18.5 6.72386 18.5 7V8H5.5V7C5.5 6.72386 5.72386 6.5 6 6.5ZM13 11H11V13H13V11ZM15 11V13H17V11H15Z" fill="black"/>
<path d="M10.8988 14.78H7.62881C7.60588 14.7812 7.5839 14.7896 7.56597 14.804C7.54804 14.8183 7.53504 14.8379 7.52881 14.86L7.27881 15.58C7.25881 15.66 7.30881 15.74 7.37881 15.74H8.64881C8.74881 15.74 8.79881 15.86 8.72881 15.93L6.70881 18.1L7.75881 21.5C7.77881 21.57 7.72881 21.64 7.65881 21.64H6.63881C6.61542 21.6405 6.5926 21.6327 6.57433 21.6181C6.55606 21.6035 6.54349 21.5829 6.53881 21.56L6.00881 19.83C5.97881 19.73 5.83881 19.73 5.80881 19.83L5.37881 21.05C5.37267 21.0695 5.37267 21.0905 5.37881 21.11L5.76881 22.6C5.77881 22.64 5.82881 22.68 5.86881 22.68H9.15881C9.22881 22.68 9.27881 22.6 9.25881 22.54L7.92881 18.26C7.91881 18.22 7.92881 18.17 7.95881 18.14L10.9788 14.97C11.0488 14.9 10.9888 14.77 10.8988 14.77V14.78Z" fill="black"/>
<path d="M7.0288 13H5.0388C5.01587 13.0012 4.99389 13.0096 4.97596 13.0239C4.95802 13.0383 4.94503 13.0579 4.9388 13.08L4.6788 13.81C4.6488 13.88 4.7088 13.96 4.7788 13.96H5.6188C5.6988 13.96 5.7488 14.03 5.7188 14.11L3.3488 20.83C3.3488 20.8565 3.33826 20.882 3.31951 20.9007C3.30076 20.9195 3.27532 20.93 3.2488 20.93C3.22228 20.93 3.19684 20.9195 3.17809 20.9007C3.15934 20.882 3.1488 20.8565 3.1488 20.83L1.4488 15.98C1.44236 15.9635 1.43999 15.9457 1.4419 15.9281C1.4438 15.9105 1.44992 15.8937 1.45973 15.879C1.46955 15.8642 1.48277 15.8521 1.49827 15.8436C1.51378 15.8351 1.53111 15.8304 1.5488 15.83H2.4088C2.4488 15.83 2.4988 15.86 2.5088 15.9L3.1288 17.65C3.1588 17.75 3.2988 17.75 3.3288 17.65L4.2888 14.93C4.29524 14.9135 4.29761 14.8957 4.2957 14.8781C4.2938 14.8605 4.28768 14.8437 4.27787 14.829C4.26805 14.8142 4.25483 14.8021 4.23933 14.7936C4.22382 14.7851 4.20649 14.7804 4.1888 14.78H0.1088C0.0288 14.78 -0.0212 14.85 0.0088 14.93L3.1288 23.93C3.1688 24.03 3.2988 24.03 3.3288 23.93L7.1288 13.15C7.1488 13.08 7.0988 13 7.0288 13V13Z" fill="#D8141C"/>
</g>
<defs>
<clipPath id="clip0_2_2">
<rect width="24" height="24" fill="white"/>
</clipPath>
</defs>
</svg>

<svg xmlns="http://www.w3.org/2000/svg" width="24" height="24"><g clip-path="url(#a)"><path fill-rule="evenodd" d="M8 3H6v2a2 2 0 0 0-2 2v4.885l.039-.032a1.61 1.61 0 0 1 .92-.35l.04-.003H5.5v-2h13V19a.5.5 0 0 1-.5.5H9.885l.466 1.5H18a2 2 0 0 0 2-2V7a2 2 0 0 0-2-2V3h-2v2H8V3Zm.63 10H9v-2H7v.5h.029a1.6 1.6 0 0 1 1.34.73c.142.217.239.483.26.77ZM6 6.5h12a.5.5 0 0 1 .5.5v1h-13V7a.5.5 0 0 1 .5-.5Zm7 4.5h-2v2h2v-2Zm2 0v2h2v-2h-2Z" clip-rule="evenodd"/><path d="M10.899 14.78h-3.27a.11.11 0 0 0-.1.08l-.25.72c-.02.08.03.16.1.16h1.27c.1 0 .15.12.08.19l-2.02 2.17 1.05 3.4c.02.07-.03.14-.1.14h-1.02a.1.1 0 0 1-.1-.08l-.53-1.73c-.03-.1-.17-.1-.2 0l-.43 1.22a.1.1 0 0 0 0 .06l.39 1.49c.01.04.06.08.1.08h3.29c.07 0 .12-.08.1-.14l-1.33-4.28c-.01-.04 0-.09.03-.12l3.02-3.17c.07-.07.01-.2-.08-.2v.01Z"/><path fill="#D8141C" d="M7.029 13h-1.99a.11.11 0 0 0-.1.08l-.26.73c-.03.07.03.15.1.15h.84c.08 0 .13.07.1.15l-2.37 6.72a.1.1 0 1 1-.2 0l-1.7-4.85a.11.11 0 0 1 .1-.15h.86c.04 0 .09.03.1.07l.62 1.75c.03.1.17.1.2 0l.96-2.72a.11.11 0 0 0-.1-.15H.109c-.08 0-.13.07-.1.15l3.12 9c.04.1.17.1.2 0l3.8-10.78c.02-.07-.03-.15-.1-.15Z"/></g><defs><clipPath id="a"><path fill="#fff" d="M0 0h24v24H0z"/></clipPath></defs></svg>
